icons/extensions-sync-download-symbolic.svg

<svg version="1.1" viewBox="0 0 16 16" xmlns="http://www.w3.org/2000/svg">
	<g id="Icons with numbers" transform="translate(0 -.5)" style="fill-rule:evenodd;fill:#bebebe">
		<g id="Group" transform="translate(-720,-432)" style="fill:#bebebe">
			<path d="m721 446h12v-3h2v5h-14zm0-3h2v3h-2zm5-10h4v7h2l-4 5-4-5h2z" style="fill:#bebebe"/>
		</g>
	</g>
</svg>

<?xml version="1.0" ?>
<svg height="16px" version="1.1" viewBox="0 0 16 16" width="16px"
  xmlns="http://www.w3.org/2000/svg"
  xmlns:sketch="http://www.bohemiancoding.com/sketch/ns"
  xmlns:xlink="http://www.w3.org/1999/xlink">
  <title/>
  <defs/>
  <g fill="none" fill-rule="evenodd" id="Icons with numbers" stroke="none" stroke-width="1">
    <g fill="#ffffff" id="Group" transform="translate(-720.000000, -432.000000)">
      <path d="M721,446 L733,446 L733,443 L735,443 L735,446 L735,448 L721,448 Z M721,443 L723,443 L723,446 L721,446 Z M726,433 L730,433 L730,440 L732,440 L728,445 L724,440 L726,440 Z M726,433" id="Rectangle 217"/>
    </g>
  </g>
</svg>
